assets/img/bag.svg

<svg width="80" height="80" viewBox="0 0 80 80" fill="none" xmlns="http://www.w3.org/2000/svg">
<g clip-path="url(#clip0)">
<path d="M9.84299 61H1.84299V68.5L3.34299 72L13.343 71.5L12.343 64L9.84299 61Z" fill="#FFC940"/>
<path d="M47 39H32.5V48L47.5 48.5L47 39Z" fill="#FFC940"/>
<path d="M73.3333 16.6667H56.6667V13.3332C56.6667 9.6565 53.6769 6.6665 50 6.6665H30C26.3233 6.6665 23.3333 9.65635 23.3333 13.3332V16.6665H6.66672C2.98984 16.6667 0 19.6565 0 23.3332V66.6665C0 70.3432 2.98984 73.3332 6.66672 73.3332H73.3334C77.0102 73.3332 80.0002 70.3434 80.0002 66.6665V23.3332C80 19.6565 77.0102 16.6667 73.3333 16.6667ZM26.6667 13.3332C26.6667 11.4957 28.1625 9.99994 30 9.99994H50C51.8375 9.99994 53.3333 11.4957 53.3333 13.3332V16.6665H26.6667V13.3332ZM76.6667 66.6667C76.6667 68.5042 75.1709 69.9999 73.3334 69.9999H6.66672C4.82922 69.9999 3.33344 68.5042 3.33344 66.6667V42.4062C4.31797 42.9803 5.44703 43.3334 6.66672 43.3334H30.3334V48.3334C30.3334 49.2546 31.0789 50.0001 32.0002 50.0001H48.0002C48.9214 50.0001 49.6669 49.2546 49.6669 48.3334V43.3334H73.3336C74.5533 43.3334 75.6825 42.9804 76.6669 42.4062L76.6667 66.6667ZM33.6667 46.6667V39.9999H46.3334V46.6667H33.6667ZM76.6667 36.6667C76.6667 38.5042 75.1709 39.9999 73.3334 39.9999H49.6667V38.3332C49.6667 37.412 48.9212 36.6665 48 36.6665H32C31.0788 36.6665 30.3333 37.412 30.3333 38.3332V39.9999H6.66672C4.82922 39.9999 3.33344 38.5042 3.33344 36.6667V23.3334C3.33344 21.4959 4.82922 20.0001 6.66672 20.0001H73.3334C75.1709 20.0001 76.6667 21.4959 76.6667 23.3334V36.6667Z" fill="black"/>
<path fill-rule="evenodd" clip-rule="evenodd" d="M0.342987 59.5H7.34299C9.2045 59.5 10.878 59.8071 12.0925 60.7787C13.3875 61.8147 13.843 63.336 13.843 65V73H6.41786C5.37269 73.0953 3.88679 72.8786 2.61618 71.9016C1.24035 70.8438 0.342987 69.0712 0.342987 66.5V59.5ZM3.34299 62.5V66.5C3.34299 68.3288 3.94563 69.1396 4.4448 69.5234C5.01194 69.9594 5.72597 70.0593 6.17734 70.0092L6.25991 70H10.843V65C10.843 63.864 10.5484 63.3853 10.2184 63.1213C9.80799 62.7929 8.98147 62.5 7.34299 62.5H3.34299Z" fill="black"/>
<path d="M70.2284 61H78.2284V68.5L76.7284 72L66.7284 71.5L67.7284 64L70.2284 61Z" fill="#FFC940"/>
<path fill-rule="evenodd" clip-rule="evenodd" d="M79.7284 59.5H72.7284C70.8669 59.5 69.1934 59.8071 67.9789 60.7787C66.6839 61.8147 66.2284 63.336 66.2284 65V73H73.6536C74.6987 73.0953 76.1846 72.8786 77.4553 71.9016C78.8311 70.8438 79.7284 69.0712 79.7284 66.5V59.5ZM76.7284 62.5V66.5C76.7284 68.3288 76.1258 69.1396 75.6266 69.5234C75.0595 69.9594 74.3455 70.0593 73.8941 70.0092L73.8115 70H69.2284V65C69.2284 63.864 69.523 63.3853 69.853 63.1213C70.2634 62.7929 71.09 62.5 72.7284 62.5H76.7284Z" fill="black"/>
</g>
<defs>
<clipPath id="clip0">
<rect width="80" height="80" fill="white"/>
</clipPath>
</defs>
</svg>

<svg width="80" height="80" fill="none" xmlns="http://www.w3.org/2000/svg"><g clip-path="url(#clip0)"><path d="M9.843 61h-8v7.5l1.5 3.5 10-.5-1-7.5-2.5-3zM47 39H32.5v9l15 .5L47 39z" fill="#FFC940"/><path d="M73.333 16.667H56.667v-3.334A6.673 6.673 0 0050 6.666H30a6.673 6.673 0 00-6.667 6.667v3.333H6.667A6.673 6.673 0 000 23.334v43.334a6.673 6.673 0 006.667 6.666h66.666A6.673 6.673 0 0080 66.667V23.332a6.673 6.673 0 00-6.667-6.666zm-46.666-3.334A3.338 3.338 0 0130 10h20a3.338 3.338 0 013.333 3.333v3.333H26.667v-3.333zm50 53.334A3.338 3.338 0 0173.333 70H6.667a3.338 3.338 0 01-3.334-3.333v-24.26c.985.573 2.114.926 3.334.926h23.666v5c0 .922.746 1.667 1.667 1.667h16c.921 0 1.667-.745 1.667-1.667v-5h23.667c1.22 0 2.349-.353 3.333-.927v24.26zm-43-20V40h12.666v6.667H33.667zm43-10A3.338 3.338 0 0173.333 40H49.667v-1.667c0-.921-.746-1.666-1.667-1.666H32c-.921 0-1.667.745-1.667 1.666V40H6.667a3.338 3.338 0 01-3.334-3.333V23.333A3.338 3.338 0 016.667 20h66.666a3.338 3.338 0 013.334 3.333v13.334z" fill="#000"/><path fill-rule="evenodd" clip-rule="evenodd" d="M.343 59.5h7c1.861 0 3.535.307 4.75 1.279 1.294 1.036 1.75 2.557 1.75 4.221v8H6.418c-1.045.095-2.531-.121-3.802-1.098C1.24 70.844.343 69.072.343 66.5v-7zm3 3v4c0 1.829.603 2.64 1.102 3.023a2.53 2.53 0 001.732.486L6.26 70h4.583v-5c0-1.136-.295-1.615-.625-1.879-.41-.328-1.237-.621-2.875-.621h-4z" fill="#000"/><path d="M70.228 61h8v7.5l-1.5 3.5-10-.5 1-7.5 2.5-3z" fill="#FFC940"/><path fill-rule="evenodd" clip-rule="evenodd" d="M79.728 59.5h-7c-1.861 0-3.535.307-4.75 1.279-1.294 1.036-1.75 2.557-1.75 4.221v8h7.426c1.045.095 2.53-.121 3.801-1.098 1.376-1.058 2.273-2.83 2.273-5.402v-7zm-3 3v4c0 1.829-.602 2.64-1.101 3.023a2.529 2.529 0 01-1.733.486L73.811 70h-4.583v-5c0-1.136.295-1.615.625-1.879.41-.328 1.237-.621 2.875-.621h4z" fill="#000"/></g><defs><clipPath id="clip0"><path fill="#fff" d="M0 0h80v80H0z"/></clipPath></defs></svg>
